components/ui-node-icon/src/localFile/localFile.small.svg

<svg width="16" height="16" viewBox="0 0 16 16" fill="none" xmlns="http://www.w3.org/2000/svg">
  <path d="M3 3C3 2.44772 3.44772 2 4 2H8.58579C8.851 2 9.10536 2.10536 9.29289 2.29289L12.7071 5.70711C12.8946 5.89464 13 6.149 13 6.41421V13C13 13.5523 12.5523 14 12 14H4C3.44772 14 3 13.5523 3 13V3Z" fill="var(--tbl--colors--icons--transformation--primary)"/>
  <path d="M9 5V2L13 6H10C9.44772 6 9 5.55228 9 5Z" fill="white" fill-opacity="0.5"/>
</svg>

<svg xmlns="http://www.w3.org/2000/svg" width="16" height="16" fill="none" viewBox="0 0 16 16">
  <path fill="var(--tbl--colors--icons--transformation--primary)" d="M3 3a1 1 0 0 1 1-1h4.586a1 1 0 0 1 .707.293l3.414 3.414a1 1 0 0 1 .293.707V13a1 1 0 0 1-1 1H4a1 1 0 0 1-1-1V3Z"/>
  <path fill="#fff" fill-opacity=".5" d="M9 5V2l4 4h-3a1 1 0 0 1-1-1Z"/>
</svg>
